dist/img/footer/logo.svg

<svg width="90" height="90" viewBox="0 0 90 90" fill="none" xmlns="http://www.w3.org/2000/svg">
<path fill-rule="evenodd" clip-rule="evenodd" d="M45 0C20.1472 0 0 20.1472 0 45C0 69.8528 20.1472 90 45 90C69.8528 90 90 69.8528 90 45C90 20.1472 69.8528 0 45 0ZM13.7923 55.034C14.4142 54.8578 14.0405 53.9923 13.0809 54.5228C12.4168 54.89 11.9212 55.5189 12.0104 56.2871C12.3075 58.8468 14.463 58.8502 16.3281 58.8531C16.4685 58.8533 16.6073 58.8535 16.7436 58.8548C16.6981 59.0838 16.682 59.378 16.6648 59.6931C16.636 60.2172 16.6042 60.799 16.4289 61.2339C16.1146 62.0141 15.5748 62.4095 15.3336 62.5862C15.303 62.6086 15.2772 62.6275 15.2573 62.6432C15.1189 62.7523 14.7973 63.7565 14.6212 64.3064C14.572 64.4601 14.5341 64.5782 14.5148 64.6315C14.4263 64.8757 14.6647 65.978 14.794 66.1593C14.9235 66.3408 15.5161 66.4106 15.5978 66.3339C15.6659 66.2699 15.6725 66.2592 15.6295 66.1726L15.5978 66.1105C15.5229 65.964 15.4479 65.8036 15.4071 65.5245C15.3662 65.2455 15.6114 64.3106 15.6864 64.1083C15.7305 63.9892 16.1735 63.8362 16.6528 63.6707C16.9877 63.5551 17.3402 63.4334 17.5868 63.3128C17.9073 63.1562 18.2161 62.9517 18.4362 62.806C18.6277 62.6792 18.7521 62.5968 18.7584 62.6293C18.7721 62.699 18.7175 63.8292 18.6766 64.0804C18.6358 64.3314 19.0854 64.75 19.5213 65.1268C19.7217 65.3 19.8329 65.482 19.9263 65.635C20.036 65.8147 20.1212 65.9542 20.2979 65.992C20.6248 66.0616 21.1016 65.992 21.2924 65.95C21.3664 65.9338 21.426 65.9533 21.4776 65.9702C21.5591 65.9968 21.6206 66.0169 21.6873 65.8802C21.7963 65.657 21.6057 65.4757 21.4422 65.364C21.389 65.3277 21.3099 65.287 21.2203 65.2408C21.0344 65.1452 20.8035 65.0263 20.6656 64.8757C20.6409 64.8487 20.614 64.8198 20.5859 64.7897C20.3816 64.5706 20.1137 64.2834 20.1616 64.1362C20.1812 64.076 20.2606 63.9708 20.3594 63.8399C20.5354 63.6067 20.773 63.292 20.8428 63.006C20.9517 62.5595 21.0063 62.2525 21.0063 62.2525C21.0063 62.2525 21.7568 62.3082 22.4107 62.4756C23.0647 62.6431 24.318 62.6291 24.318 62.6291C24.318 62.6291 24.1272 62.9639 23.9911 63.2151C23.9803 63.2349 23.9684 63.2566 23.9556 63.2798C23.8061 63.5507 23.5397 64.0336 23.6777 64.3034C23.8275 64.5965 24.4815 65.7823 24.8356 65.922C25.096 66.0246 25.3196 65.9989 25.501 65.9782C25.5663 65.9707 25.6262 65.9638 25.6803 65.9638C25.8846 65.9638 26.0073 65.908 25.8982 65.7127C25.8075 65.5499 25.6978 65.5034 25.5927 65.4682L25.5304 65.4475C25.5106 65.4408 25.4904 65.4347 25.4701 65.4286C25.3648 65.3971 25.2561 65.3646 25.1762 65.2243C25.0808 65.0568 24.9991 64.6243 24.9991 64.3593C24.9991 64.1766 25.3287 63.8219 25.6318 63.4957C25.7688 63.3483 25.9003 63.2067 25.9936 63.0894C26.2933 62.7128 26.3887 62.4896 26.3887 62.4896C26.3887 62.4896 26.4841 63.2987 26.5931 63.5918C26.7021 63.8848 27.4105 64.4709 27.8601 64.7918C28.1359 64.9886 28.2681 65.2117 28.3606 65.3676C28.4189 65.4659 28.4614 65.5375 28.514 65.5591C28.6502 65.615 29.0863 65.7057 29.2632 65.6499C29.4404 65.5941 29.5834 65.4825 29.42 65.3011C29.3125 65.1818 29.1756 65.0927 29.0576 65.0159C28.9961 64.9759 28.9398 64.9392 28.8955 64.9034C28.766 64.7987 27.9146 63.5709 27.8329 63.0407C27.7512 62.5104 27.7239 62.1896 27.7921 61.8686C27.8601 61.5477 27.9146 61.464 27.9146 61.464L27.9574 61.4217C28.0788 61.302 28.4274 60.9616 28.589 60.836C28.7866 60.6825 29.8356 60.515 30.0603 60.6476C30.106 60.6745 30.1444 60.7009 30.1789 60.7246C30.3144 60.8177 30.391 60.8704 30.619 60.7593C30.8545 60.6443 31.0624 60.4182 31.1665 60.305C31.1888 60.2807 31.2063 60.2617 31.2183 60.25C31.2569 60.2125 31.2703 60.2051 31.2852 60.197C31.2966 60.1907 31.3089 60.184 31.3342 60.1627C31.392 60.1138 31.4023 60.1034 31.3886 60.0442C31.3843 60.0253 31.3454 59.9528 31.2929 59.8551C31.18 59.6448 31.0044 59.3177 30.9765 59.1582C30.9642 59.0878 30.9606 59.0396 30.9576 59.0011C30.9509 58.9117 30.9481 58.875 30.8505 58.7361C30.7674 58.6177 30.5358 58.4177 30.3648 58.2701C30.2486 58.1698 30.1603 58.0936 30.1658 58.0837L30.1679 58.08C30.1898 58.0411 30.3192 57.812 30.3192 57.7313C30.3192 57.6477 29.7912 57.7873 29.7912 57.7873C29.7912 57.7873 29.8797 57.6687 29.8593 57.5012C29.8389 57.3338 29.7981 57.2396 29.7707 57.2361C29.7435 57.2326 29.3723 57.4942 29.2599 57.6268C29.1474 57.7594 29.0998 57.8116 29.0829 57.8151C29.0811 57.8155 29.07 57.8195 29.0507 57.8265C28.8783 57.8892 28.0572 58.1878 27.5363 58.1815C27.0767 58.176 26.3937 58.0693 25.8453 57.9836C25.703 57.9614 25.5699 57.9406 25.452 57.9233C25.2992 57.901 25.0342 57.8433 24.7021 57.771C23.7903 57.5727 22.3728 57.2643 21.3842 57.2746C20.0355 57.2885 18.7258 57.3422 18.5919 57.4011C17.9201 57.5701 15.2108 57.9264 14.2239 57.6665C12.8487 57.3042 12.4173 55.4235 13.7923 55.034ZM67.2473 60.8769L49.9648 19H41.0851L26.1626 55.3689C26.221 55.3296 26.2839 55.2863 26.3567 55.2361C26.392 55.2117 26.4297 55.1858 26.4703 55.1579C26.5884 55.0768 26.8003 54.9391 27.0496 54.7771C27.6784 54.3684 28.5453 53.805 28.7455 53.6051C29.0251 53.3259 29.5721 52.3821 29.7912 51.6304C30.0104 50.8788 30.5718 49.8354 30.7379 49.5586L30.7555 49.5293C30.9187 49.2578 31.1163 48.9289 31.1254 48.7179C31.1313 48.5802 31.2308 48.3715 31.3462 48.1295C31.4142 47.9869 31.4877 47.8327 31.5508 47.6748C31.6353 47.463 31.697 47.1802 31.7475 46.9481C31.7987 46.7132 31.8386 46.5302 31.8795 46.5252C31.961 46.5155 32.1724 46.9756 32.2812 47.2468C32.3899 47.518 32.6511 48.1048 32.695 48.1932C32.7351 48.2743 32.91 48.319 33.0616 48.3579C33.0754 48.3614 33.0891 48.3649 33.1024 48.3684C33.1794 48.3884 33.3229 48.4609 33.4799 48.5402C33.6476 48.6249 33.8306 48.7173 33.9646 48.762C34.2242 48.8487 34.288 48.9079 34.4025 49.0215C34.4535 49.0719 34.4961 49.1357 34.5417 49.204C34.5988 49.2895 34.6607 49.3821 34.7497 49.4651C34.9098 49.6144 35.3044 49.6969 35.6301 49.7619C35.8028 49.7963 36.0162 49.8782 36.2225 49.9573C36.4055 50.0275 36.5829 50.0955 36.7211 50.1263C37.015 50.1917 36.981 50.289 36.9226 50.4447C36.8642 50.6006 36.6879 50.8842 36.547 51.046C36.5134 51.0847 36.4843 51.1239 36.4546 51.164C36.3599 51.2917 36.2594 51.4273 35.9882 51.5762C35.6789 51.7462 35.4226 51.7536 35.1843 51.7605C35.1483 51.7615 35.1127 51.7626 35.0774 51.7641C34.9759 51.7687 34.862 51.7863 34.7424 51.8047C34.545 51.8352 34.3322 51.868 34.1349 51.8485C33.9119 51.8265 33.7844 51.8424 33.6516 51.859C33.5957 51.866 33.539 51.8731 33.4737 51.8775C33.3095 51.8887 33.2822 51.9287 33.2457 51.9821C33.2333 52.0003 33.2197 52.0202 33.1993 52.0409C33.119 52.1225 32.9464 52.5575 32.9079 53.1987C32.8956 53.4038 32.8754 53.6461 32.8548 53.8933C32.8111 54.4186 32.7655 54.9657 32.7899 55.2246C32.8135 55.4738 32.9265 55.8172 33.0595 56.2213C33.1299 56.435 33.2058 56.6657 33.2771 56.9084C33.4332 57.44 33.4069 57.8852 33.3865 58.2313C33.38 58.3421 33.374 58.4427 33.3749 58.5328C33.378 58.8771 33.2066 59.3366 33.0733 59.694C33.0628 59.7223 33.0525 59.7499 33.0425 59.7768C33.0213 59.8341 32.948 60.023 32.8395 60.3028C32.4101 61.4099 31.429 63.9395 30.9349 65.3661L39.7614 65.3636V63.9345C36.2164 63.8016 34.4437 62.6494 34.4437 60.478C34.4437 59.7246 34.5989 58.9492 34.9091 58.1515L37.302 52.0361H52.8895L56.0802 59.7136C56.2573 60.1345 56.346 60.5888 56.346 61.0763C56.346 62.8488 54.3297 63.8016 50.2971 63.9345V65.3636H72V63.9345H71.734C69.5848 63.9345 68.0893 62.9152 67.2473 60.8769ZM38.3323 49.3773L44.8465 32.5601L51.7928 49.3773H38.3323Z" fill="white"/>
</svg>

<svg width="90" height="90" fill="none" xmlns="http://www.w3.org/2000/svg"><path fill-rule="evenodd" clip-rule="evenodd" d="M45 0C20.147 0 0 20.147 0 45s20.147 45 45 45 45-20.147 45-45S69.853 0 45 0zM13.792 55.034c.622-.176.248-1.042-.711-.511-.664.367-1.16.996-1.07 1.764.296 2.56 2.452 2.563 4.317 2.566.14 0 .28 0 .416.002a6.493 6.493 0 00-.08.838c-.028.524-.06 1.106-.235 1.54-.314.781-.854 1.177-1.095 1.353a2.89 2.89 0 00-.077.057c-.138.11-.46 1.114-.636 1.663-.049.154-.087.272-.106.326-.089.244.15 1.346.279 1.527.13.182.722.252.804.175.068-.064.074-.075.031-.161l-.031-.063a1.703 1.703 0 01-.19-.585c-.042-.28.203-1.214.278-1.417.044-.119.488-.272.967-.437.335-.116.687-.238.934-.358.32-.157.63-.361.85-.507.19-.127.315-.21.321-.177.014.07-.04 1.2-.081 1.451-.041.251.408.67.844 1.047.2.173.312.355.405.508.11.18.195.32.372.357.327.07.804 0 .994-.042a.332.332 0 01.186.02c.081.027.143.047.21-.09.108-.223-.082-.404-.246-.516a2.311 2.311 0 00-.222-.123c-.186-.096-.416-.215-.554-.365a11.844 11.844 0 00-.08-.086c-.204-.22-.472-.507-.424-.654.02-.06.099-.165.197-.296.176-.233.414-.548.484-.834.109-.447.163-.754.163-.754s.75.056 1.405.224c.654.167 1.907.153 1.907.153s-.19.335-.327.586l-.035.065c-.15.27-.416.754-.278 1.023.15.294.803 1.48 1.158 1.619.26.103.484.077.665.056.065-.007.125-.014.18-.014.204 0 .326-.056.217-.251a.483.483 0 00-.305-.245l-.063-.02a1.844 1.844 0 00-.06-.02c-.105-.03-.214-.063-.294-.204-.095-.167-.177-.6-.177-.865 0-.182.33-.537.633-.863.137-.148.268-.29.362-.407.3-.376.395-.6.395-.6s.095.81.204 1.103c.11.293.817.879 1.267 1.2.276.197.408.42.5.576.059.098.101.17.154.191.136.056.572.147.75.09.176-.055.32-.166.156-.348-.108-.12-.244-.208-.362-.285a2.035 2.035 0 01-.163-.113c-.129-.104-.98-1.332-1.062-1.862-.082-.53-.11-.851-.04-1.172.067-.321.122-.405.122-.405l.042-.042c.122-.12.47-.46.632-.586.198-.154 1.247-.321 1.471-.188.046.026.084.053.119.077.135.093.212.145.44.034.236-.115.443-.34.547-.454l.052-.055a.263.263 0 01.067-.053.253.253 0 00.05-.034c.057-.05.067-.06.054-.119a1.804 1.804 0 00-.096-.189c-.113-.21-.289-.537-.316-.697-.013-.07-.016-.118-.02-.157-.006-.09-.009-.126-.107-.265-.083-.118-.314-.318-.485-.466-.116-.1-.205-.176-.2-.186l.003-.004c.022-.039.151-.268.151-.349 0-.083-.528.056-.528.056s.089-.118.068-.286c-.02-.167-.06-.261-.088-.265-.027-.003-.399.258-.511.39-.113.133-.16.186-.177.19a.848.848 0 00-.032.01c-.173.063-.994.362-1.515.355-.46-.005-1.142-.112-1.69-.197a24.366 24.366 0 00-.394-.06c-.153-.023-.418-.08-.75-.153-.912-.198-2.33-.507-3.318-.496-1.349.014-2.658.067-2.792.126-.672.17-3.381.525-4.368.265-1.375-.362-1.807-2.242-.432-2.632zm53.455 5.843L49.965 19h-8.88L26.163 55.369l.194-.133.113-.078c.118-.081.33-.219.58-.38.628-.41 1.495-.973 1.695-1.173.28-.28.827-1.223 1.046-1.975.22-.751.78-1.795.947-2.071l.018-.03c.163-.271.36-.6.37-.811.005-.138.105-.347.22-.589a7.71 7.71 0 00.205-.454c.084-.212.146-.495.197-.727.05-.235.09-.418.131-.423.082-.01.293.45.402.722.109.271.37.858.414.946.04.081.215.126.367.165l.04.01c.077.02.22.093.378.172.168.085.35.177.485.222.26.087.323.146.438.26.05.05.093.114.139.182.057.085.119.178.208.261.16.15.554.232.88.297.173.034.386.116.592.195.184.07.36.139.5.17.293.065.259.162.2.318-.058.156-.234.44-.375.601a1.904 1.904 0 00-.092.118 1.264 1.264 0 01-.467.412c-.31.17-.565.178-.804.184a7.288 7.288 0 00-.107.004 3.555 3.555 0 00-.335.04c-.197.031-.41.064-.607.044a1.892 1.892 0 00-.483.011 2.993 2.993 0 01-.178.018c-.164.012-.192.052-.228.105a.394.394 0 01-.047.059c-.08.082-.253.517-.291 1.158-.012.205-.033.447-.053.694-.044.526-.09 1.073-.065 1.332.023.249.136.592.27.996.07.214.146.445.217.687.156.532.13.977.11 1.323a4.242 4.242 0 00-.012.302c.003.344-.168.804-.302 1.161l-.03.083-.203.526c-.43 1.107-1.411 3.637-1.905 5.063l8.826-.002v-1.43c-3.545-.132-5.317-1.285-5.317-3.456 0-.753.155-1.529.465-2.327l2.393-6.115h15.587l3.191 7.678c.177.42.266.875.266 1.362 0 1.773-2.016 2.726-6.049 2.858v1.43H72v-1.43h-.266c-2.15 0-3.645-1.019-4.487-3.057zm-28.915-11.5l6.514-16.817 6.947 16.817h-13.46z" fill="#fff"/></svg>
